svgs/sharp-regular/shop-lock.svg

<svg xmlns="http://www.w3.org/2000/svg" viewBox="0 0 640 512"><!--! Font Awesome Pro 6.6.0 by @fontawesome - https://fontawesome.com License - https://fontawesome.com/license (Commercial License) Copyright 2024 Fonticons, Inc. --><path d="M515.5 48l69.6 127.6c19.1 11.3 34.5 28.2 44.1 48.4l10.8 0 0-48L544 0 96 0 0 176l0 48 48 0 16 0 0 264 0 24 24 0 272 0 24 0 0-24 0-264 42.8 0c9.5-20 24.7-36.7 43.5-48L54.7 176 124.5 48l391 0zM336 224l0 96-224 0 0-96 224 0zM112 464l0-96 224 0 0 96-224 0zM528 240c17.7 0 32 14.3 32 32l0 48-64 0 0-48c0-17.7 14.3-32 32-32zm-80 32l0 48-32 0 0 192 224 0 0-192-32 0 0-48c0-44.2-35.8-80-80-80s-80 35.8-80 80z"/></svg>

<svg xmlns="http://www.w3.org/2000/svg" viewBox="0 0 640 512"><!--! Font Awesome Pro 6.4.0 by @fontawesome - https://fontawesome.com License - https://fontawesome.com/license (Commercial License) Copyright 2023 Fonticons, Inc. --><path d="M515.5 48l69.6 127.6c19.1 11.3 34.5 28.2 44.1 48.4H640V176L544 0H96L0 176v48H48 64V488v24H88 360h24V488 224h42.8c9.5-20 24.7-36.7 43.5-48H54.7L124.5 48h391zM336 224v96H112V224H336zM112 464V368H336v96H112zM528 240c17.7 0 32 14.3 32 32v48H496V272c0-17.7 14.3-32 32-32zm-80 32v48H416V512H640V320H608V272c0-44.2-35.8-80-80-80s-80 35.8-80 80z"/></svg>
